packages/elements/bolt-icon/src/svgs/github.svg

<svg enable-background="new 0 0 32 32" viewBox="0 0 32 32" xmlns="http://www.w3.org/2000/svg"><path d="m16 .4c8.8 0 16 7.2 16 16 0 7.1-4.6 13.1-10.9 15.2-.8.1-1.1-.4-1.1-.8 0-.5 0-2.2 0-4.4 0-1.5-.5-2.5-1.1-3 3.6-.4 7.3-1.8 7.3-7.9 0-1.8-.6-3.2-1.6-4.3.2-.4.7-2-.2-4.2-1.3-.4-4.4 1.7-4.4 1.7-1.3-.4-2.6-.5-4-.5s-2.7.2-4 .5c0 0-3.1-2.1-4.4-1.6-.9 2.2-.3 3.8-.2 4.2-1 1.1-1.6 2.5-1.6 4.3 0 6.1 3.7 7.5 7.3 7.9-.5.4-.9 1.1-1 2.1-.9.4-3.3 1.1-4.6-1.3-1-1.6-2.5-1.7-2.5-1.7-1.6 0-.1 1-.1 1 1 .5 1.8 2.3 1.8 2.3.9 2.9 5.4 1.9 5.4 1.9v3c0 .4-.3.9-1.1.8-6.4-2.1-11-8.1-11-15.2 0-8.8 7.2-16 16-16zm-9.9 23c0-.1 0-.2-.1-.2s-.2 0-.3 0c0 .1 0 .2.1.2.1.1.2.1.3 0zm.6.7c.1-.1.1-.2 0-.3s-.2-.1-.3-.1c-.1.1-.1.2 0 .3s.2.2.3.1zm.6.9c.1-.1.1-.2 0-.4-.1-.1-.2-.2-.4-.1-.1.1-.1.2 0 .4.2.1.3.2.4.1zm.9.9c.1-.1 0-.3-.1-.4s-.3-.2-.4-.1-.1.3.1.4c.1.2.3.2.4.1zm1.2.5c0-.1-.1-.3-.3-.3s-.4 0-.4.1.1.3.3.3c.2.1.4 0 .4-.1zm1.3.1c0-.1-.2-.2-.4-.2s-.3.1-.3.2.1.2.4.2c.2 0 .3-.1.3-.2zm1.2-.2c0-.1-.2-.2-.4-.2s-.3.2-.3.3.2.2.4.2.3-.2.3-.3z" fill="#151619"/></svg>

<?xml version="1.0" encoding="utf-8"?>
<!-- Generator: Adobe Illustrator 25.2.0, SVG Export Plug-In . SVG Version: 6.00 Build 0)  -->
<svg version="1.1" id="Layer_1" xmlns="http://www.w3.org/2000/svg" xmlns:xlink="http://www.w3.org/1999/xlink" x="0px" y="0px"
	 viewBox="0 0 32 32" style="enable-background:new 0 0 32 32;" xml:space="preserve">
<style type="text/css">
	.st0{fill:#151619;}
</style>
<path class="st0" d="M16,0.4c8.8,0,16,7.2,16,16c0,7.1-4.6,13.1-10.9,15.2c-0.8,0.1-1.1-0.4-1.1-0.8c0-0.5,0-2.2,0-4.4
	c0-1.5-0.5-2.5-1.1-3c3.6-0.4,7.3-1.8,7.3-7.9c0-1.8-0.6-3.2-1.6-4.3c0.2-0.4,0.7-2-0.2-4.2C23.1,6.6,20,8.7,20,8.7
	c-1.3-0.4-2.6-0.5-4-0.5c-1.4,0-2.7,0.2-4,0.5c0,0-3.1-2.1-4.4-1.6c-0.9,2.2-0.3,3.8-0.2,4.2c-1,1.1-1.6,2.5-1.6,4.3
	c0,6.1,3.7,7.5,7.3,7.9c-0.5,0.4-0.9,1.1-1,2.1c-0.9,0.4-3.3,1.1-4.6-1.3C6.5,22.7,5,22.6,5,22.6c-1.6,0-0.1,1-0.1,1
	c1,0.5,1.8,2.3,1.8,2.3c0.9,2.9,5.4,1.9,5.4,1.9c0,1.3,0,2.6,0,3c0,0.4-0.3,0.9-1.1,0.8C4.6,29.5,0,23.5,0,16.4
	C0,7.6,7.2,0.4,16,0.4L16,0.4z M6.1,23.4c0-0.1,0-0.2-0.1-0.2c-0.1,0-0.2,0-0.3,0c0,0.1,0,0.2,0.1,0.2C5.9,23.5,6,23.5,6.1,23.4z
	 M6.7,24.1c0.1-0.1,0.1-0.2,0-0.3c-0.1-0.1-0.2-0.1-0.3-0.1c-0.1,0.1-0.1,0.2,0,0.3C6.5,24.1,6.6,24.2,6.7,24.1z M7.3,25
	c0.1-0.1,0.1-0.2,0-0.4c-0.1-0.1-0.2-0.2-0.4-0.1c-0.1,0.1-0.1,0.2,0,0.4C7.1,25,7.2,25.1,7.3,25L7.3,25z M8.2,25.9
	c0.1-0.1,0-0.3-0.1-0.4c-0.1-0.1-0.3-0.2-0.4-0.1c-0.1,0.1-0.1,0.3,0.1,0.4C7.9,26,8.1,26,8.2,25.9z M9.4,26.4
	c0-0.1-0.1-0.3-0.3-0.3c-0.2,0-0.4,0-0.4,0.1s0.1,0.3,0.3,0.3C9.2,26.6,9.4,26.5,9.4,26.4L9.4,26.4z M10.7,26.5
	c0-0.1-0.2-0.2-0.4-0.2c-0.2,0-0.3,0.1-0.3,0.2c0,0.1,0.1,0.2,0.4,0.2C10.6,26.7,10.7,26.6,10.7,26.5z M11.9,26.3
	c0-0.1-0.2-0.2-0.4-0.2c-0.2,0-0.3,0.2-0.3,0.3c0,0.1,0.2,0.2,0.4,0.2C11.8,26.6,11.9,26.4,11.9,26.3L11.9,26.3z"/>
</svg>
